X: 3
T: Love sick Polly
%%VWML:Thompsons1765-2277d-p2-0
F:http://www.vwml.org/record/Thompsons1765/2277d/p2
B: Chas & Sam Thompson "Twenty Four Country Dances for the Year 1765", London 1765, p.2 #1 
F: http://www.vwml.org/browse/browse-collections-dance-tune-books/browse-thompsons1765#
Z: 2014 John Chambers <jc:trillian.mit.edu> (added dance description)
M: C|
L: 1/8
K: Em  |:\
e2EF GFGE | gfge e^dcB | e2EF GFGE | cBcA B2-B2 | e2EF GFGE |
gfge e^dcB | b2ag a2gf | g2Tf2 e4 :: g2fe e^dcB | g2fe e^dcB |
e2B2 {d}c2BA | {A}G2FE B2-B2 | e2EF GFGE | gfge e^dcB | e2B2 {d}c2BA | G2TF2 E4 :| 
% - - - - - - - - - - Dance description - - - - - - - - - -
%%begintext align
%% Cast off two Cu: and up again :|. cross over two Cu: lead up
%% to the top and cast off :|. hands across with the 3d Cu: and
%% back again .|: hands four round at top and right and left :|:
%%endtext
T: Powell's Fancy
%R: slip-jig
B: Chas & Sam Thompson "Twenty Four Country Dances for the Year 1765", London 1765, p.2 #2 
F: http://www.vwml.org/browse/browse-collections-dance-tune-books/browse-thompsons1765#
Z: 2014 John Chambers <jc:trillian.mit.edu> (added dance description)
N: The 2nd strain has final repeat but no initial repeat; fixed with initial repeats on both strains.
M: 9/8
L: 1/8
K: F
|:\
f2d cAF cAF | f2d cAF B2G |\
f2d cAF cAF | GAB AGF EDC :|
|:\
f2a afa afa | f2a afa gec |\
f2a afa afa | gab agf edc :|
% - - - - - - - - - - Dance description - - - - - - - - - -
%%begintext align
%% Turn right hands and cast off one Cu: .|. turn
%% with your left hands the Man casts off and
%% the Wo: cast up :|. foot it three at top and
%% bottom .|: foot it three Contrary Sides :|:
%% foot it corners and turn .||. :||. lead out sides
%% and turn .||: :||:
%%endtext
